icon_installer/data/icons/scalable/actions/show-no-flying-symbolic.svg

<?xml version="1.0" encoding="UTF-8"?>
<svg height="16px" viewBox="0 0 16 16" width="16px" xmlns="http://www.w3.org/2000/svg">
    <g fill="#222222">
        <path d="m 6.496094 1 c -0.792969 0 -0.78125 0.035156 -0.53125 1.03125 l 1.625 4.96875 h -1.648438 l 3.773438 3.773438 l 1.1875 -1.773438 h 3.09375 c 0.554687 0 1 -0.445312 1 -1 s -0.445313 -1 -1 -1 h -3.09375 l -3.6875 -5.5 c -0.265625 -0.457031 -0.285156 -0.5 -0.65625 -0.5 z m -5.1875 4 c -0.425782 0 -0.28125 0.4375 -0.28125 0.4375 l 0.28125 2.5625 l -0.28125 2.5625 s -0.140625 0.4375 0.25 0.4375 h 0.25 c 0.210937 0 0.203125 -0.007812 0.34375 -0.21875 l 1.21875 -1.78125 h 2.726562 l -2 -2 h -0.726562 l -1.21875 -1.78125 c -0.140625 -0.207031 -0.121094 -0.21875 -0.34375 -0.21875 z m 5.84375 5.332031 l -1.1875 3.605469 c -0.261719 1.046875 -0.265625 1.0625 0.53125 1.0625 c 0.433594 0 0.433594 -0.011719 0.71875 -0.5 l 1.648437 -2.453125 z m 0 0"/>
        <path d="m 1.53125 0.46875 l -1.0625 1.0625 l 14 14 l 1.0625 -1.0625 z m 0 0"/>
    </g>
</svg>

<svg xmlns="http://www.w3.org/2000/svg" width="16" height="16"><g fill="#222"><path d="M6.496 1c-.793 0-.781.035-.531 1.031L7.59 7H5.94l3.774 3.773L10.902 9h3.094c.555 0 1-.445 1-1s-.445-1-1-1h-3.094L7.215 1.5c-.266-.457-.285-.5-.656-.5zM1.31 5c-.426 0-.282.438-.282.438L1.31 8l-.282 2.563s-.14.437.25.437h.25c.211 0 .203-.008.344-.219L3.09 9h2.726l-2-2H3.09L1.87 5.219C1.731 5.012 1.75 5 1.527 5zm5.843 5.332-1.187 3.605C5.703 14.985 5.699 15 6.496 15c.434 0 .434-.012.719-.5l1.648-2.453zm0 0"/><path d="M1.531.469.47 1.53l14 14 1.062-1.062zm0 0"/></g></svg>
